X: 2752
T: Banks Of The Ilen, The
R: reel
M: 4/4
K: Dmajor
|:AG|FDFA d2fd|dc/d/fd ecAG|FDFA defe|dcAF G2AG|
FDFA d2fd|dc/d/fd ecAG|FDFA defe|dcAF G2:|
|:z2|f2df g2fg|abag fdde|f2fa g2fg|abaf g2fg|
abaf gfeg|fedf ecAG|FDFA defe|dcAF G2:|

